X:300
T: Miss Monaghan
M: 4/4
L: 1/8
R: Reel
K: D
D2 F/E/D FAAd|B2 BA FABc|d2 dB ABde|fede fe e2|
D2 F/E/D FAAd|B2 BA FABc|d2 dB ABdB|AFEG FD D2 :|
faab afdf|g2 fg edBc|d2 dB ABde|fede fe e2|
faab afdf|g/f/e fd edBc|d2 dB ABdB|AFEG FD D2 :|
